X: 1171
T: Colonel Montgomery's Strathspey
%R: strathspey, air
B: Niel Gow & Sons "A Collection of Strathspey Reels, etc." v.1 p.17 #1
Z: 2022 John Chambers <jc:trillian.mit.edu>
M: C
L: 1/8
Q: "Slow"
K: D
% - - - - - - - - - -
% Voice 1 reformatted for _ _-bar lines, for compactness and proofreading.
V: 1 staves=2
|:\
{AB}d>B A>F TE>DEF | {AB}d>B A>F TE>D B,2 | {AB}d>B A>F TE>DEg | Tf>ed<f e<fd2 :| A>df>d g>ef>d | A>df>d {f}e>dTB2 |
A>df>d g>ef>d | e>f{ef}a>f e>f d2 || A>df>d g>ef>d | A>df>d {f}e>dTB2 | A>df>d g>ef>d | e/d/e/f/ a>f e<f d2 |]
% - - - - - - - - - -
% Voice 2 preserves the staff layout in the book.
V: 2 clef=bass middle=d
|:\
d2d2 A2A2 | d2d2 d2G2 | d2d2 A2A2 | d2d2 A2d2 :| d'2d'2 d'2d'2 | d'2d'2 d'2g2 |
d2d2 g2d2 | d2d2 A2d2 || d2d2 g2d2 | d2d2 d2g2 | d2d2 d2d2 | a2A2 d2d2 |]


